X: 58
T:Banks Of Burdisel(),The. WI.058
M:C
L:1/8
Q:160
S:Wm Irwin, Folio MS, c1850. AGG's Transcription
R:Hornpipe
O:England
A:Lake District
N:A.G.G. has written "Not called a hornpipe" after this tune..CGP..
Z:vmp.Chris Partington.2005
K:G
((3def)|g2bg dgdB|G2G2G2AB|cBcd eEcA|GFAG FDEF|!
GBAc Bdce|dgba gfed|cBAG Fedc|B2G2G2:|!
|:FG|AFDF AFcA|BGdB gdbg|ecag fdec|d^cde fdef|!
gdbg dgBd|GBdg ((3efg) ec|((3Bcd) BG EcAF|G2G2G2|]
